modules/hawcons-stroke/icons/icon-23-star.svg

<?xml version="1.0" encoding="UTF-8" standalone="no"?>
<svg width="32px" height="32px" viewBox="0 0 32 32" version="1.1" xmlns="http://www.w3.org/2000/svg" xmlns:xlink="http://www.w3.org/1999/xlink" xmlns:sketch="http://www.bohemiancoding.com/sketch/ns">
    <!-- Generator: Sketch 3.0.3 (7891) - http://www.bohemiancoding.com/sketch -->
    <title>icon 23 star</title>
    <desc>Created with Sketch.</desc>
    <defs></defs>
    <g id="Page-1" stroke="none" stroke-width="1" fill="none" fill-rule="evenodd" sketch:type="MSPage">
        <g id="icon-23-star" sketch:type="MSArtboardGroup" fill="#929292">
            <path d="M16,23 L7,29 L11,19 L2,13 L12,13 L16,3 L20,13 L30,13 L21,19 L25,29 L16,23 L16,23 Z M16,21.7530518 L9.20001221,26.2999878 L12.4000244,18.6000061 L5.20001221,14 L12.6999512,14 L16,5.5 L19.3000488,14 L26.8000488,14 L19.5999756,18.6000061 L22.8000488,26.2999878 L16,21.7530518 L16,21.7530518 Z" id="star" sketch:type="MSShapeGroup"></path>
        </g>
    </g>
</svg>

<svg width="32" height="32" xmlns="http://www.w3.org/2000/svg"><path d="M16 23l-9 6 4-10-9-6h10l4-10 4 10h10l-9 6 4 10-9-6zm0-1.247L9.2 26.3l3.2-7.7L5.2 14h7.5L16 5.5l3.3 8.5h7.5l-7.2 4.6 3.2 7.7-6.8-4.547z" fill="#929292" fill-rule="evenodd"/></svg>
